X:1
T:Partition sans titre
C:Compositeur / Arrangeur
L:1/8
M:4/4
I:linebreak $
K:C
V:1 treble nm="Violon" snm="Vln."
V:1
"C" g^fga g2 e2 | e^def e2 GG | G2 c2 d2 c2 |"G" B6 f2 |"F" fefg f2 d2 |"G" d^cde d4 | %6
 b2 bb b3 ^f |[M:6/4]"F" a2 a2 ag"C" ec G2 g2 |[M:4/4]"C" g^fga g2 e2 | e^def e2 GG | %10
 G2 c2 B2 _B2 |"F" A4 A4 |:"F" f3 f a2 ff |"C" egeg eccc |"G" Bcde fdBd |1"C" cBce g4 :|2 %16
"C" c2 cc c2 z2 |:"G" G2 GG BGGG | ^FGBd"C" cGGG | EGce"G" fdBd |1"C" cBce g4 :|2"C" cBcd c4 |] %22
